!!!OTL: "Die Trennung" AI WAS SOLL I DENN KAFN
!!!ARE: Europa, Mitteleuropa, Oesterreich
!!!SCT: Z1242
!!!YEM: Copyright 1995, estate of Helmut Schaffrath.
**kern
*ICvox
*Ivox
*M3/4
*k[b-]
*F:
{8c
8c
=1
4f
8f
8a
4g
=2
8f
8a
4cc
8r}
{16cc
16b-
=3
8a
8cc
8a
8f
8g
8e
=4
2f}
{8c
8c
=5
4f
8f
8a
4g
=6
8f
8a
4cc
8r}
{16cc
16b-
=7
8a
8cc
8a
8f
8g
8e
=8
2f}
{8b-
8b-
=9
8a
8cc
8b-
8g
8a
8f
=10
2g}
{8b-
8b-
=11
8a
8cc
8b-
8g
8a
8f
=12
2g}
{8c
8c
=13
4f
8f
8a
4g
=14
8f
8a
4cc
8r}
{16cc
16b-
=15
8a
8cc
8a
8f
8g
8e
=16
2f}
==
!!!AGN: Liebes - Lied, verlassene Liebe
!!!ONB: ESAC (Essen Associative Code) Database: ZUCCAL
!!!AMT: simple triple
!!!AIN: vox
!!!EED: Helmut Schaffrath
!!!EEV: 1.0
*-
